content/packs/basic_addition/pims/grid_counting/field/graphics/icons/fifty_block_icon.svg

<svg width="50" xmlns="http://www.w3.org/2000/svg" height="50" fill="none"><defs><clipPath id="a" class="frame-clip frame-clip-def"><rect rx="0" ry="0" width="50" height="50"/></clipPath></defs><g clip-path="url(#a)"><g class="fills"><rect rx="0" ry="0" width="50" height="50" class="frame-background"/></g><g class="frame-children"><g class="fills"><rect rx="0" ry="0" x="-150" y="-55" width="350" height="160" class="frame-background"/></g><g class="frame-children"><rect rx="0" ry="0" x="-143" y="-51" width="336" height="152" style="fill: rgb(204, 204, 204); fill-opacity: 1;" class="fills"/><g class="strokes"><rect rx="0" ry="0" x="-143" y="-51" width="336" height="152" style="fill: none; stroke-width: 3; stroke: rgb(0, 0, 0); stroke-opacity: 1;" class="stroke-shape"/></g><g class="fills"><rect rx="0" ry="0" x="14" y="17" width="22" height="16" class="frame-background"/></g><g class="frame-children"><g class="fills"><rect rx="0" ry="0" x="25.717" y="17" width="10.283" height="16" class="frame-background"/></g><g class="frame-children"><path d="M36 24.989c0 1.684-.178 3.12-.533 4.31-.342 1.19-.889 2.105-1.643 2.743-.754.639-1.749.958-2.987.958-1.749 0-3.043-.704-3.882-2.112-.825-1.422-1.238-3.388-1.238-5.899 0-1.669.164-3.098.491-4.288.341-1.205.889-2.119 1.643-2.743.753-.639 1.749-.958 2.986-.958 1.735 0 3.03.704 3.883 2.112.853 1.393 1.28 3.352 1.28 5.877Zm-8.021 0c0 2.032.213 3.556.64 4.572.426 1.001 1.166 1.502 2.218 1.502 1.039 0 1.778-.501 2.219-1.502.441-1.002.661-2.526.661-4.572 0-2.017-.22-3.526-.661-4.528-.441-1.016-1.18-1.524-2.219-1.524-1.052 0-1.792.508-2.218 1.524-.427 1.002-.64 2.511-.64 4.528Z" style="display: inline; font-weight: 500; font-size: 5.64444px; line-height: 1.25; font-family: &quot;Noto Sans&quot;; stroke-width: 0.264583; fill: rgb(0, 0, 0); fill-opacity: 1;" class="fills"/></g><g class="fills"><rect rx="0" ry="0" x="14" y="17.277" width="9.792" height="15.445" class="frame-background"/></g><g class="frame-children"><path d="M18.757 23.059c1.508 0 2.724.391 3.648 1.173.925.782 1.387 1.899 1.387 3.349 0 1.593-.505 2.852-1.515 3.776-1.009.911-2.439 1.366-4.288 1.366a11.14 11.14 0 0 1-2.24-.214c-.682-.142-1.265-.348-1.749-.618v-2.07c.512.299 1.131.541 1.856.726.74.185 1.444.277 2.112.277 1.067 0 1.92-.242 2.56-.725.64-.498.96-1.266.96-2.304 0-.925-.292-1.629-.875-2.112-.569-.498-1.472-.747-2.709-.747-.412 0-.86.036-1.344.107-.484.071-.875.142-1.173.213l-1.046-.619.576-7.36h7.83v2.006H16.88l-.341 3.989c.241-.043.547-.085.917-.128.37-.057.804-.085 1.301-.085Z" style="display: inline; font-weight: 500; font-size: 5.64444px; line-height: 1.25; font-family: &quot;Noto Sans&quot;; stroke-width: 0.264583; fill: rgb(0, 0, 0); fill-opacity: 1;" class="fills"/></g></g></g></g></g></svg>

<svg width="50" xmlns="http://www.w3.org/2000/svg" height="50" id="screenshot-15768c80-d9e4-805b-8005-5e50107b3e0d" viewBox="0 0 50 50" xmlns:xlink="http://www.w3.org/1999/xlink" fill="none" version="1.1"><g id="shape-15768c80-d9e4-805b-8005-5e50107b3e0d"><defs><clipPath id="frame-clip-15768c80-d9e4-805b-8005-5e50107b3e0d-render-23" class="frame-clip frame-clip-def"><rect rx="0" ry="0" x="0" y="0" width="50" height="50" transform="matrix(1.000000, 0.000000, 0.000000, 1.000000, 0.000000, 0.000000)"/></clipPath></defs><g class="frame-container-wrapper"><g class="frame-container-blur"><g class="frame-container-shadows"><g clip-path="url(#frame-clip-15768c80-d9e4-805b-8005-5e50107b3e0d-render-23)" fill="none"><g class="fills" id="fills-15768c80-d9e4-805b-8005-5e50107b3e0d"><rect rx="0" ry="0" x="0" y="0" width="50" height="50" transform="matrix(1.000000, 0.000000, 0.000000, 1.000000, 0.000000, 0.000000)" class="frame-background"/></g><g class="frame-children"><g id="shape-c079da11-ea97-8013-8006-2a6e1d7bce96"><g class="frame-container-wrapper"><g class="frame-container-blur"><g class="frame-container-shadows"><g fill="none"><g class="fills" id="fills-c079da11-ea97-8013-8006-2a6e1d7bce96"><rect rx="0" ry="0" x="2.9999999999995453" y="3" width="44" height="44" transform="matrix(1.000000, 0.000000, 0.000000, 1.000000, 0.000000, 0.000000)" class="frame-background"/></g><g class="frame-children"><g id="shape-c079da11-ea97-8013-8006-2a6e1d7bce97"><g class="fills" id="fills-c079da11-ea97-8013-8006-2a6e1d7bce97"><rect rx="0" ry="0" x="2.9999999999995453" y="3" transform="matrix(1.000000, 0.000000, 0.000000, 1.000000, 0.000000, 0.000000)" width="44" height="44" style="fill: rgb(204, 204, 204); fill-opacity: 1;"/></g><g id="strokes-18cb738f-1f02-80ab-8006-2a6e91cbcb82-c079da11-ea97-8013-8006-2a6e1d7bce97" class="strokes"><g class="stroke-shape"><rect rx="0" ry="0" x="2.9999999999995453" y="3" transform="matrix(1.000000, 0.000000, 0.000000, 1.000000, 0.000000, 0.000000)" width="44" height="44" style="fill: none; stroke-width: 3; stroke: rgb(0, 0, 0); stroke-opacity: 1;"/></g></g></g></g></g></g></g></g></g><g id="shape-15768c80-d9e4-805b-8005-5e5059fc0d31"><g class="frame-container-wrapper"><g class="frame-container-blur"><g class="frame-container-shadows"><g fill="none"><g class="fills" id="fills-15768c80-d9e4-805b-8005-5e5059fc0d31"><rect rx="0" ry="0" x="13.999999999999545" y="17" width="22" height="16" transform="matrix(1.000000, 0.000000, 0.000000, 1.000000, 0.000000, 0.000000)" class="frame-background"/></g><g class="frame-children"><g id="shape-15768c80-d9e4-805b-8005-5e5059fc0d32"><g class="frame-container-wrapper"><g class="frame-container-blur"><g class="frame-container-shadows"><g fill="none"><g class="fills" id="fills-15768c80-d9e4-805b-8005-5e5059fc0d32"><rect rx="0" ry="0" x="25.717271158307085" y="17" width="10.28272884169246" height="16" transform="matrix(1.000000, 0.000000, 0.000000, 1.000000, 0.000000, 0.000000)" class="frame-background"/></g><g class="frame-children"><g id="shape-15768c80-d9e4-805b-8005-5e5059fc0d33"><g class="fills" id="fills-15768c80-d9e4-805b-8005-5e5059fc0d33"><path d="M36.000,24.989C36.000,26.673,35.822,28.109,35.467,29.299C35.125,30.489,34.578,31.404,33.824,32.042C33.070,32.681,32.075,33.000,30.837,33.000C29.088,33.000,27.794,32.296,26.955,30.888C26.130,29.466,25.717,27.500,25.717,24.989C25.717,23.320,25.881,21.891,26.208,20.701C26.549,19.496,27.097,18.582,27.851,17.958C28.604,17.319,29.600,17.000,30.837,17.000C32.572,17.000,33.867,17.704,34.720,19.112C35.573,20.505,36.000,22.464,36.000,24.989ZL36.000,24.989ZM27.979,24.989C27.979,27.021,28.192,28.545,28.619,29.561C29.045,30.562,29.785,31.063,30.837,31.063C31.876,31.063,32.615,30.562,33.056,29.561C33.497,28.559,33.717,27.035,33.717,24.989C33.717,22.972,33.497,21.463,33.056,20.461C32.615,19.445,31.876,18.937,30.837,18.937C29.785,18.937,29.045,19.445,28.619,20.461C28.192,21.463,27.979,22.972,27.979,24.989ZL27.979,24.989Z" style="display: inline; font-weight: 500; font-size: 5.64444px; line-height: 1.25; font-family: &quot;Noto Sans&quot;; stroke-width: 0.264583; fill: rgb(0, 0, 0); fill-opacity: 1;"/></g></g></g></g></g></g></g></g><g id="shape-15768c80-d9e4-805b-8005-5e5059fc0d34"><g class="frame-container-wrapper"><g class="frame-container-blur"><g class="frame-container-shadows"><g fill="none"><g class="fills" id="fills-15768c80-d9e4-805b-8005-5e5059fc0d34"><rect rx="0" ry="0" x="13.999999999999545" y="17.277270460764612" width="9.792059647285896" height="15.445459078470776" transform="matrix(1.000000, 0.000000, 0.000000, 1.000000, 0.000000, 0.000000)" class="frame-background"/></g><g class="frame-children"><g id="shape-15768c80-d9e4-805b-8005-5e5059fc0d35"><g class="fills" id="fills-15768c80-d9e4-805b-8005-5e5059fc0d35"><path d="M18.757,23.059C20.265,23.059,21.481,23.450,22.405,24.232C23.330,25.014,23.792,26.131,23.792,27.581C23.792,29.174,23.287,30.433,22.277,31.357C21.268,32.268,19.838,32.723,17.989,32.723C17.193,32.723,16.446,32.652,15.749,32.509C15.067,32.367,14.484,32.161,14.000,31.891L14.000,29.821C14.512,30.120,15.131,30.362,15.856,30.547C16.596,30.732,17.300,30.824,17.968,30.824C19.035,30.824,19.888,30.582,20.528,30.099C21.168,29.601,21.488,28.833,21.488,27.795C21.488,26.870,21.196,26.166,20.613,25.683C20.044,25.185,19.141,24.936,17.904,24.936C17.492,24.936,17.044,24.972,16.560,25.043C16.076,25.114,15.685,25.185,15.387,25.256L14.341,24.637L14.917,17.277L22.747,17.277L22.747,19.283L16.880,19.283L16.539,23.272C16.780,23.229,17.086,23.187,17.456,23.144C17.826,23.087,18.260,23.059,18.757,23.059ZZ" style="display: inline; font-weight: 500; font-size: 5.64444px; line-height: 1.25; font-family: &quot;Noto Sans&quot;; stroke-width: 0.264583; fill: rgb(0, 0, 0); fill-opacity: 1;"/></g></g></g></g></g></g></g></g></g></g></g></g></g></g></g></g></g></g></g></g></svg>
